X:482
T: Hongjun laishi xileiliu
N: C1901
O: China,Zhejiang Taishun
S: III, 620, 1)]
R: Shange]
M: 3/8
L: 1/16
K: D
A2B2d2f2 | d2f2e2 | d2f2Ef | e4dedB | A6B2
d2e2d2e2 | d6e2 | e2d2B4 | ABA4z2
F2d2B2d2 | A6AB | e2d2e2 | d6e2
d2e2B2d2 | A6B2 | B2e2B4 | ABA6

@@@ Tune index: 7037
